X: 30887
T: Out The Door And Over The Wall
R: slip jig
M: 9/8
K: Eminor
[M:8/8]|:"Em"dee dz fga|[M:4/8]b2 "D"a2|[M:7/8] "Em"fgg g2g2|[M:6/8]"D" gfd "Em"e3|
[M:7/8]"Em"de dee de|[M:9/8]fga b2"D"a2 ga|[M:7/8]"Em"fgg g2g2|[M:6/8] "D"fgd "Em"e2e:|
|:[M:7/8]"Am"gaa a2a2|gaa a2a2|gaa a2g2|"Em"fgg g2g2|[M:6/8] "Bm"ffd "Em"e3|
|:[M:7/8]"Am" gaa a2a2|gaa a2a2|gaa a2g2|"Em"fgg g2g2|[M:6/8] "Bm"ffd "Em"e3:|
[K:A][M:7/8]|:"A"edc {d}c2 {d}c2|Bcd {d}c2 {d}c2|edc {d}c2 {d}c2|[M:6/8] "E"cBG "A"Az2|
[M:7/8] edc {d}c2 {d}c2|[M:9/8]"Bm" Bcd ffd ffd|[M:7/8]"A"edc {d}c2 {d}c2|1 [M:6/8] "E"c BG "A"ABe:|2 [M:6/8] "E"c BG "A"Az2||

